icons/svg/office/consulting.svg

<?xml version="1.0" encoding="UTF-8" standalone="no"?>
<!-- Created with Inkscape (http://www.inkscape.org/) -->

<svg
   xmlns:dc="http://purl.org/dc/elements/1.1/"
   xmlns:cc="http://creativecommons.org/ns#"
   xmlns:rdf="http://www.w3.org/1999/02/22-rdf-syntax-ns#"
   xmlns:svg="http://www.w3.org/2000/svg"
   xmlns="http://www.w3.org/2000/svg"
   xmlns:sodipodi="http://sodipodi.sourceforge.net/DTD/sodipodi-0.dtd"
   xmlns:inkscape="http://www.inkscape.org/namespaces/inkscape"
   version="1.0"
   width="580"
   height="580"
   id="svg2"
   sodipodi:version="0.32"
   inkscape:version="0.91 r"
   sodipodi:docname="consulting.svg"
   inkscape:output_extension="org.inkscape.output.svg.inkscape">
  <metadata
     id="metadata10">
    <rdf:RDF>
      <cc:Work
         rdf:about="">
        <dc:format>image/svg+xml</dc:format>
        <dc:type
           rdf:resource="http://purl.org/dc/dcmitype/StillImage" />
        <cc:license
           rdf:resource="http://web.resource.org/cc/PublicDomain" />
        <dc:language>en</dc:language>
        <dc:title></dc:title>
      </cc:Work>
    </rdf:RDF>
  </metadata>
  <sodipodi:namedview
     inkscape:window-height="1004"
     inkscape:window-width="1920"
     inkscape:pageshadow="2"
     inkscape:pageopacity="0.0"
     guidetolerance="10.0"
     gridtolerance="10.0"
     objecttolerance="10.0"
     borderopacity="1.0"
     bordercolor="#666666"
     pagecolor="#ffffff"
     id="base"
     showgrid="false"
     inkscape:zoom="0.5"
     inkscape:cx="314.94285"
     inkscape:cy="336.28985"
     inkscape:window-x="1680"
     inkscape:window-y="0"
     inkscape:current-layer="svg2"
     inkscape:window-maximized="1" />
  <defs
     id="defs4">
    <inkscape:perspective
       sodipodi:type="inkscape:persp3d"
       inkscape:vp_x="0 : 290 : 1"
       inkscape:vp_y="0 : 1000 : 0"
       inkscape:vp_z="580 : 290 : 1"
       inkscape:persp3d-origin="290 : 193.33333 : 1"
       id="perspective12" />
  </defs>
  <g
     id="g1327">
    <path
       d="M 66.275,1.768 C 24.94,1.768 1.704,23.139 1.704,66.804 L 1.704,516.927 C 1.704,557.771 22.598,579.156 63.896,579.156 L 515.92,579.156 C 557.227,579.156 578.149,558.84 578.149,516.927 L 578.149,66.804 C 578.149,24.203 557.227,1.768 514.627,1.768 C 514.624,1.768 66.133,1.625 66.275,1.768 z"
       style="fill:#111111;stroke:#eeeeee;stroke-width:3.40799999"
       id="path1329" />
  </g>
  <path
     inkscape:connector-curvature="0"
     style="color:#000000;clip-rule:nonzero;display:inline;overflow:visible;visibility:visible;opacity:1;isolation:auto;mix-blend-mode:normal;color-interpolation:sRGB;color-interpolation-filters:linearRGB;solid-color:#000000;solid-opacity:1;fill:#ffffff;fill-opacity:1;fill-rule:nonzero;stroke:none;stroke-width:25;stroke-linecap:round;stroke-linejoin:round;stroke-miterlimit:4;stroke-dasharray:none;stroke-dashoffset:0;stroke-opacity:1;marker:none;color-rendering:auto;image-rendering:auto;shape-rendering:auto;text-rendering:auto;enable-background:accumulate"
     d="m 143.29087,308.48637 c -15.16319,0 -28.17493,9.21233 -33.74414,22.34765 l -2.89258,35.31446 0,38.75586 c 0,4.71422 0.89771,9.21518 2.51954,13.35546 l -79.132816,0 0,26.78907 0,10.71679 0,92.875 24.779038,0 0,-92.875 254.074738,0 0,92.875 24.77513,0 0,-92.875 0.002,0 0,-37.50586 -79.13281,0 c 1.62182,-4.14028 2.51953,-8.64126 2.51953,-13.35546 l 0,-38.75391 -2.89258,-35.31836 c -5.5692,-13.13175 -18.58094,-22.3457 -33.74414,-22.3457 l -77.13086,0 z m -7.71289,49.17382 8.67774,0 0,60.59961 -8.67774,0 z m 83.87891,0 8.67773,0 0,60.59961 -8.67773,0 z"
     id="path4178"
     sodipodi:nodetypes="sccsccccccccccccccsccscscccccccccc" />
  <path
     inkscape:connector-curvature="0"
     style="color:#000000;clip-rule:nonzero;display:inline;overflow:visible;visibility:visible;opacity:1;isolation:auto;mix-blend-mode:normal;color-interpolation:sRGB;color-interpolation-filters:linearRGB;solid-color:#000000;solid-opacity:1;fill:#ffffff;fill-opacity:1;fill-rule:nonzero;stroke:none;stroke-width:25;stroke-linecap:round;stroke-linejoin:round;stroke-miterlimit:4;stroke-dasharray:none;stroke-dashoffset:0;stroke-opacity:1;marker:none;color-rendering:auto;image-rendering:auto;shape-rendering:auto;text-rendering:auto;enable-background:accumulate"
     d="m 181.85728,203.24223 c -24.76076,0 -44.83397,20.07127 -44.83399,44.83203 0,24.76075 20.07323,44.83203 44.83399,44.83203 24.76076,0 44.83203,-20.07128 44.83203,-44.83203 0,-24.76076 -20.07127,-44.83203 -44.83203,-44.83203 z"
     id="path4176" />
  <g
     transform="matrix(1.2434964,0,0,1.2434964,-112.55081,-8.1291098)"
     id="g15">
    <circle
       style="fill:#ffffff"
       id="circle17"
       r="54.985001"
       cy="82.561996"
       cx="445.5" />
    <path
       style="fill:#ffffff"
       inkscape:connector-curvature="0"
       id="path19"
       d="m 388.742,318.828 0,-101.868 10.644,0 0,118.438 92.23,0 0,-118.438 10.642,0 0,101.868 c 20.271,-4.347 35.473,-22.358 35.473,-43.925 l 0,-47.53 -3.548,-43.314 c -6.83,-16.106 -22.787,-27.404 -41.385,-27.404 l -94.597,0 c -18.598,0 -34.556,11.298 -41.386,27.405 l -3.547,43.311 0,47.532 c 0.001,21.567 15.203,39.58 35.474,43.925 z m 49.339,-140.838 -7.42,-12.849 14.839,0 14.838,0 -7.419,12.849 -3.71,6.423 3.71,6.425 7.419,12.849 -14.838,74.735 -14.839,-74.735 7.42,-12.849 3.709,-6.424 -3.709,-6.424 z" />
  </g>
</svg>

<svg width="580" height="580" viewBox="0 0 580 580" fill="none" xmlns="http://www.w3.org/2000/svg">
<g clip-path="url(#clip0)">
<path d="M66.2751 1.76802C24.9401 1.76802 1.7041 23.139 1.7041 66.804V516.927C1.7041 557.771 22.5981 579.156 63.8961 579.156H515.92C557.227 579.156 578.149 558.84 578.149 516.927V66.804C578.149 24.203 557.227 1.76802 514.627 1.76802C514.624 1.76802 66.1331 1.62502 66.2751 1.76802Z" fill="#111111" stroke="#EEEEEE" stroke-width="3.408"/>
<path d="M143.291 308.486C128.128 308.486 115.116 317.699 109.547 330.834L106.654 366.148V404.904C106.654 409.619 107.552 414.119 109.174 418.26H30.0408V445.049V455.766V548.641H54.8198V455.766H308.895V548.641H333.67V455.766H333.672V418.26H254.539C256.161 414.119 257.058 409.618 257.058 404.904V366.15L254.166 330.832C248.597 317.7 235.585 308.486 220.422 308.486H143.291H143.291ZM135.578 357.66H144.256V418.26H135.578V357.66ZM219.457 357.66H228.135V418.26H219.457V357.66Z" fill="white"/>
<path d="M181.857 203.242C157.096 203.242 137.023 223.313 137.023 248.074C137.023 272.835 157.096 292.906 181.857 292.906C206.618 292.906 226.689 272.835 226.689 248.074C226.689 223.313 206.618 203.242 181.857 203.242Z" fill="white"/>
<path d="M441.427 162.91C479.189 162.91 509.801 132.298 509.801 94.5365C509.801 56.7748 479.189 26.1628 441.427 26.1628C403.665 26.1628 373.053 56.7748 373.053 94.5365C373.053 132.298 403.665 162.91 441.427 162.91Z" fill="white"/>
<path d="M370.849 388.332V261.66H384.084V408.937H498.772V261.66H512.005V388.332C537.212 382.927 556.116 360.53 556.116 333.712V274.608L551.704 220.748C543.211 200.72 523.368 186.671 500.242 186.671H382.611C359.484 186.671 339.641 200.72 331.147 220.749L326.737 274.606V333.712C326.738 360.53 345.642 382.929 370.849 388.332V388.332ZM432.201 213.201L422.975 197.223H441.427H459.878L450.652 213.201L446.039 221.188L450.652 229.177L459.878 245.155L441.427 338.088L422.975 245.155L432.201 229.177L436.814 221.189L432.201 213.201V213.201Z" fill="white"/>
</g>
<defs>
<clipPath id="clip0">
<path d="M0 0H580V580H0V0Z" fill="white"/>
</clipPath>
</defs>
</svg>
